!!!OTL: WAS KANN UNS WOHL MEHR ERFREUEN
!!!ARE: Europa, Mitteleuropa, Deutschland, Schleswig, West - Kueste
!!!SCT: E1355
!!!YEM: Copyright 1995, estate of Helmut Schaffrath.
**kern
*ICvox
*Ivox
*M3/4
*k[f#]
*G:
{4d
=1
4.g
8f#
4g
=2
4g
4ee
4dd
=3
4b
4g}
{4b
=4
4.dd
8cc
4b
=5
4.a
8b
4cc
=6
2dd}
{8b
8cc
=7
4dd
4dd
8ee
8dd
=8
4cc
4cc
8dd
8cc
=9
4b
4b}
{8cc
8b
=10
4a
4cc
8b
8a
=11
2g
4b
=12
2d}
{4b
=13
4.cc
8dd
4ee
=14
4.dd
8cc
4a
=15
2g}
{8b
8cc
=16
4dd
4dd
8ee
8dd
=17
4cc
4cc
8dd
8cc
=18
4b
4b}
{8cc
8b
=19
4a
4cc
8b
8a
=20
2g
4b
=21
2d}
{4b
=22
4.cc
8dd
4ee
=23
4.dd
8cc
4a
=24
2g}
==
!!!AGN: Staende -, Soldaten -, Kriegs - Lied
!!!ONB: ESAC (Essen Associative Code) Database: ERK3
!!!AMT: simple triple
!!!AIN: vox
!!!EED: Helmut Schaffrath
!!!EEV: 1.0
*-
